X:1
T:Ceste belle petite bouche
T:Christophorus Barius
T:Source : La fleur des chansons à 3---Louvain---P.Phalèse---1574. Editor : André Vierendeels (19/09/18) Notes : Original clefs : G2, G2, C3 Original note values have been halved Editorial accidentals above the staff 
T:Ceste belle petite bouche
T:©
T:©
T:©
T:©
T:©
C:Christophorus Barius
Z:©
%%score [ 1 2 3 ]
L:1/8
Q:1/4=102
M:2/2
K:F
V:1 treble nm="Soprano 1" snm="S 1"
V:2 treble nm="Soprano 2" snm="S 2"
V:3 treble-8 nm="Tenor" snm="T"
V:1
 c2 Ad ccdd | e2 fF A>Bcc | cc d2 c2 z2 | c2 cc c2 c2 | d2 e2 f3 d | e2 f2 c2 BA | G2 z G G2 G2 | %7
w: Ces- te bel- le pe- ti- te|bou- che, ces- te bel- le pe-|ti- te bou- che|que tant à bai- ser|ie de- si- *||re, m'a fait en|
 B2 B2 A2 F2 | FGAB c2 G2 | G2 G2 F2 D2 | E2 F2 D4 | C2 G2 G2 G2 | B6 G2 | FE DC D4 | F2 A2 A2 A2 | %15
w: nuyt bien cent fois|di- * * * re, m'a|fait en nuyt bien|cent fois di-|re, qu'il est bien|heu- reux|qui _ la _ tou-|che, qu'il est bien|
 B6 A2 | GF F4 E2 | F2 F2 A Bcc | cc d2 cc A2 | F2 B3 A G2 | c4 A3 F | BB c2 d2 _e2 | c2 c2 f4 | %23
w: heu- reux|qui la tou- *|che, ces- te bou- * che,|ces- te bou- che, in- ces-|sam- ment, in ces-|sam- ment mon|cueur sou spi- re tou-|tes les nuyts,|
 g2 f2 edcB | A2 F2 c4 | d3 c BA B2- | BA A4 G2 | A2 A2 A2 G2 | F4 E4 | G2 GG A2 B2 | A2 A2 GABG | %31
w: mon cueur sou- * * *|spi- re tou-|tes _ _ _ _|_ _ _ les|nuyts, quand ie me|cou- che|en di- sant, vray Dieu,|mon doux si- * * *|
 A4 z2 c2 | c2 B2 A3 G | FF c2 F2 fe | dc B3 AGF | G4 F2 c2 | A2 d2 c3 c | dd e2 fccc | d4 c4- | %39
w: re faic-|tes la ve- nir|à ma cou- che, faic _|tes la ve- nir à ma|cou- che, ces-|te bel- le pe-|ti- te bou- che, pe- ti- te|bou- che.|
 c8 |] %40
w: _|
V:2
 F2 FG AAAA | B2 Ac c>B A2 | A2 B2 A2 G2 | G2 G2 A4- | A2 B2 c2 A2 | B2 cB AG F2- | F2 ED E4 | %7
w: Ces- te bel- le pe- ti- te|bou- che, ces- te bel- le|pe- ti- te bou-|che que tant|_ à bai- ser|ie de- * * * si-||
 D2 z d d2 d2 | f2 f2 e2 c2 | d2 Bc de d2- |"^-natural" d2 c4 B2 | c2 e2 e2 e2 | f6 e2 | dc c4 B2 | %14
w: re, m'a fait en|nuyt bien cent hois|di- * * * * *||re, qu'il est bien|heu- reux|qui la tou- *|
 c2 c2 c2 c2 | _e6 c2 | BAGF G2 G2 | F2 c2 defF | AA B2 A2 c2 | A2 F2 G2 z G | E2 C2 F c2 A | %21
w: che, qu'il est bien|heu- reux|qui _ _ _ la tou-|che, ces- te _ bou- che,|ces- te bou- che, in|ces- sam- ment, in-|ces- sam- ment, mon cueur|
 d2 c3 B B2- | B2 A2 B2 A2 | z2 F2 c4 | d4 c2 A2 | BABc d4- | d2 c2 B4 | A2 f2 f2 e2 | d4 c2 c2 | %29
w: sou- spi- re tou-|* tes les nuyts,|tou- tes|les nuyts, quand|ie _ _ _ _|_ me cou-|che, quand ie me|cou- che en|
 cc c2 F2 G2 | E2 F2 D2 G2- | G2 F4 ED | EC G2 CccB | A2 G2 A2 B2- | BA G4 F2- | F2 E2 F2 F2 | %36
w: di- sant, vray Dieu, mon|doux si- * *||* * * re, faic- tes la|ve- nir à ma|_ _ cou- *|* * che, ces-|
 F2 G2 A3 A | AA B2 AAAA | B4 A4- | A8 |] %40
w: te bel- le pe-|ti- te bou- che, pe- ti- te|bou- che.|_|
V:3
 z4 f2 d2 | g2 f3 f f2 | f2 B2 f2 c2 | c2 c2 f4- | f2 g2 a2 f2 | g2 f4 B2 | c3 c c2 c2 | %7
w: Ces- te|bel- le pe- ti-|te bou- che que|tant à bai-|* ser ie de-|si- re, m'a|fait en nuyt bien|
 B2 B2 fedc | d4 c4 | G2 GG B2 B2 | A2 F2 G4 | c2 c2 c2 c2 | B6 c2 | F2 A2 G4 | F2 f2 f2 f2 | %15
w: cent fois di- * * *|* re,|m'a fait en nuyt bien|cent fois di-|re, qu'il est bien|heu- reux|qui la tou-|che, qu'il est bien|
 _e6 f2 | B2 d2 c4 | F2 f2 dgff | ff B2 f2 f2- | f2 d2 B2 c2 | c2 A2 F2 ff | g2 a2 g2 _e2 | %22
w: heu- reux|qui la tou-|che, ces- ste _ bou- che,|ces- te bou- che, in|_ ces- sam- ment,|in ces- sam- ment mon|cueur sou- spi- re,|
 f4 B2 F2 | c2 d2 c2 f2- | f2 d2 e2 f2 | B4 z2 B2- | B2 F2 G4 | d2 d2 f2 c2 | d4 A2 c2 | %29
w: mon cueur sou-|spi- * re, tou-|* tes les _|nuyts, tou-|* tes les|nuyts, quand ie me|cou- che en|
 c2 e2 d2 G2 | A2 F2 G4 | d4 c2 cB | A2 G2 F2 f2 | f2 e2 d3 c | B2 B2 d4 | c4 F4 | z4 f4 | %37
w: di- sant, vray Dieu,|mon doux si-|re, faic- tes _|la ve- nir, faic-|tes la ve- *|nir en ma|cou- che,|ces-|
 d2 g2 ffff | B4 f4- | f8 |] %40
w: te bel- le pe- ti- te|bou- che.|_|

